img/touch-card-img-01.svg

<svg width="72" height="72" viewBox="0 0 72 72" fill="none" xmlns="http://www.w3.org/2000/svg">
<path d="M55.9295 38.9947C55.578 38.6426 55.1605 38.3632 54.7009 38.1726C54.2413 37.982 53.7487 37.8839 53.2511 37.8839C52.7536 37.8839 52.2609 37.982 51.8013 38.1726C51.3417 38.3632 50.9242 38.6426 50.5727 38.9947L44.534 45.0334C41.7344 44.1999 36.5102 42.3057 33.1992 38.9947C29.8881 35.6836 27.9939 30.4594 27.1605 27.6598L33.1992 21.6211C33.5513 21.2696 33.8306 20.8521 34.0212 20.3925C34.2118 19.9329 34.3099 19.4403 34.3099 18.9427C34.3099 18.4452 34.2118 17.9525 34.0212 17.4929C33.8306 17.0333 33.5513 16.6159 33.1992 16.2643L18.0456 1.11076C17.6941 0.758646 17.2766 0.479298 16.817 0.288701C16.3574 0.0981045 15.8647 0 15.3672 0C14.8696 0 14.377 0.0981045 13.9174 0.288701C13.4578 0.479298 13.0403 0.758646 12.6888 1.11076L2.41467 11.3849C0.975078 12.8245 0.164361 14.802 0.194668 16.8212C0.281801 22.2159 1.71003 40.9533 16.4772 55.7204C31.2443 70.4876 49.9817 71.912 55.3802 72.003H55.4863C57.4865 72.003 59.377 71.215 60.809 69.783L71.0831 59.5088C71.4352 59.1573 71.7146 58.7398 71.9052 58.2802C72.0957 57.8207 72.1938 57.328 72.1938 56.8304C72.1938 56.3329 72.0957 55.8402 71.9052 55.3807C71.7146 54.9211 71.4352 54.5036 71.0831 54.1521L55.9295 38.9947ZM55.4484 64.4224C50.7205 64.3428 34.544 63.0737 21.834 50.3599C9.08224 37.6081 7.84722 21.3749 7.77146 16.7417L15.3672 9.14594L25.164 18.9427L20.2656 23.8411C19.8203 24.2861 19.4929 24.835 19.313 25.4382C19.1331 26.0414 19.1063 26.68 19.2351 27.2961C19.3261 27.7318 21.5498 38.0627 27.8386 44.3515C34.1273 50.6402 44.4583 52.864 44.8939 52.9549C45.5097 53.0874 46.1489 53.0627 46.7527 52.8833C47.3565 52.7039 47.9054 52.3755 48.3489 51.9283L53.2511 47.0299L63.0479 56.8267L55.4484 64.4224Z" fill="#00A0C1"/>
</svg>

<svg width="72" height="72" fill="none" xmlns="http://www.w3.org/2000/svg"><path d="M55.93 38.995a3.785 3.785 0 0 0-5.357 0l-6.039 6.038c-2.8-.833-8.024-2.727-11.335-6.038-3.31-3.311-5.205-8.536-6.038-11.335l6.038-6.039a3.784 3.784 0 0 0 0-5.357L18.046 1.111a3.784 3.784 0 0 0-5.357 0L2.415 11.385a7.571 7.571 0 0 0-2.22 5.436c.087 5.395 1.515 24.132 16.282 38.9C31.244 70.487 49.982 71.911 55.38 72.002h.106c2 0 3.891-.788 5.323-2.22l10.274-10.274a3.785 3.785 0 0 0 0-5.357L55.93 38.995Zm-.482 25.427c-4.727-.08-20.904-1.348-33.614-14.062C9.082 37.608 7.847 21.375 7.771 16.742l7.596-7.596 9.797 9.797-4.898 4.898a3.789 3.789 0 0 0-1.03 3.455c.09.436 2.314 10.767 8.603 17.056 6.288 6.288 16.62 8.512 17.055 8.603a3.754 3.754 0 0 0 3.455-1.027l4.902-4.898 9.797 9.797-7.6 7.595Z" fill="#00A0C1"/></svg>
